X:1
T:Title
%%score ( 1 2 ) ( 3 4 )
L:1/8
Q:1/4=100
M:4/4
K:G
V:1 treble nm="Midi_20"
V:2 treble 
V:3 bass nm="Midi_20"
V:4 bass 
V:1
"^Adsis Jesu (65. 65)""^William Henry Monk\n(1823-89)""^Jesus, stand among us" B2 B2 d2 B2 | %1
 A4 G4 | A2 G2 F2 E2 | D8 | E2 E2 G2 A2 | B4 A4 | c2 B2 A2 A2 | G8 |] %8
V:2
 D2 G2 F2 G2 | (G2 F2) G4 | D3 E D2 ^C2 | (A,4 B,4) | C2 C2 D2 C2 | (B,2 D2) D4 | E2 D2 D3 C | %7
 B,8 |] %8
V:3
"^1. Jesus, stand among us\nIn Thy risen power;\nLet this time of worship\nBe a hallowed hour.\n\n2. Breathe the Holy Spirit\nInto every heart;\nBid the fears and sorrows\nFrom each soul depart.\n\n3. Thus with quickened footsteps\nwe pursue our way,\nWatching for the dawning\nOf eternal day.\n" B,2 G,2 A,2 B,C | %1
 D4 B,4 | A,2 B,2 A,3 G, | F,8 | G,2 G,2 G,3 F, | G,4 F,4 | G,2 G,2 G,2 F,2 | G,8 |] %8
V:4
 G,2 E,2 D,2 D,2 | D,4 G,4 | F,2 G,2 A,2 A,,2 | D,8 | C,2 C,2 B,,2 A,,2 | (G,,2 B,,2) D,4 | %6
 C,2 G,,2 D,2 D,2 | G,,8 |] %8

